static/logos/circle-wordmark-color.svg

<svg width="100" height="28" viewBox="0 0 100 28" fill="none" xmlns="http://www.w3.org/2000/svg">
<g clip-path="url(#clip0_1_3280)">
<path fill-rule="evenodd" clip-rule="evenodd" d="M76.1006 25.2362C76.1006 26.4981 75.0946 27.463 73.8278 27.463C72.5982 27.463 71.5923 26.4981 71.5923 25.2362V2.22673C71.5923 1.00203 72.561 0 73.8278 0C75.0946 0 76.1006 1.00203 76.1006 2.22673V25.2362ZM32.3346 2.63516C32.3346 3.9712 31.2168 4.86189 29.7638 4.86189C28.3107 4.86189 27.1929 3.9712 27.1929 2.63516V2.41249C27.1929 1.07645 28.3107 0.222869 29.7638 0.222869C31.2168 0.222869 32.3346 1.07645 32.3346 2.41249V2.63516ZM22.7277 24.2343C20.2686 26.3867 17.4743 27.7228 13.2641 27.7228C5.6633 27.7228 0 21.822 0 14.3624V14.2882C0 6.90286 5.55152 0.853579 13.4503 0.853579C17.4743 0.853579 20.1196 2.04117 22.3924 3.78544C22.8767 4.15656 23.2866 4.78747 23.2866 5.60393C23.2866 6.86574 22.2806 7.83066 21.0139 7.83066C20.3804 7.83066 19.9333 7.60799 19.6352 7.38532C17.8468 5.93794 15.9094 5.04725 13.4131 5.04725C8.45768 5.04725 4.80635 9.12958 4.80635 14.214V14.2882C4.80635 19.3726 8.42043 23.492 13.4131 23.492C16.1702 23.492 18.0332 22.6013 19.9334 21.0054C20.2686 20.7086 20.753 20.4859 21.3119 20.4859C22.4669 20.4859 23.4729 21.4508 23.4729 22.6013C23.4729 23.3064 23.1375 23.8631 22.7277 24.2343ZM29.7649 27.463C31.0317 27.463 32.0377 26.4981 32.0377 25.2362V9.72339C32.0377 8.46156 31.0317 7.45954 29.7649 7.45954C28.4981 7.45954 27.5294 8.46156 27.5294 9.72339V25.2362C27.5294 26.4981 28.5353 27.463 29.7649 27.463ZM41.5712 25.2362C41.5712 26.461 40.5652 27.463 39.2984 27.463C38.0689 27.463 37.063 26.4981 37.063 25.2362V9.72339C37.063 8.46156 38.0317 7.45954 39.2984 7.45954C40.5652 7.45954 41.5712 8.46156 41.5712 9.72339V11.7274C42.6145 9.27804 44.5519 7.42243 46.5266 7.42243C47.9424 7.42243 48.7621 8.35023 48.7621 9.64916C48.7621 10.8367 47.9797 11.6161 46.9737 11.8017C43.7695 12.3583 41.5712 14.8077 41.5712 19.4467V25.2362ZM60.0095 27.7228C63.2883 27.7228 65.412 26.6094 67.1632 24.9394C67.573 24.6053 67.7965 24.1229 67.7965 23.5291C67.7965 22.4529 66.9396 21.5622 65.8591 21.5622C65.3375 21.5622 64.8904 21.822 64.6296 22.0447C63.4001 23.0838 62.0215 23.7889 60.2331 23.7889C56.768 23.7889 54.3462 21.0054 54.3462 17.5169V17.4427C54.3462 14.0284 56.768 11.2078 60.0468 11.2078C61.8351 11.2078 63.102 11.913 64.257 12.8779C64.555 13.1006 65.0394 13.3233 65.5983 13.3233C66.7534 13.3233 67.6848 12.4326 67.6848 11.2821C67.6848 10.5398 67.2749 9.98317 66.9768 9.72339C65.3002 8.27601 63.1765 7.27398 60.0841 7.27398C54.1599 7.27398 49.8379 11.9501 49.8379 17.5169V17.5912C49.8379 23.158 54.1599 27.7228 60.0095 27.7228ZM90.1443 27.7228C93.1994 27.7228 95.435 26.7207 97.2234 25.1249C97.5587 24.7909 97.8195 24.3084 97.8195 23.7518C97.8195 22.7126 97.037 21.9333 96.0311 21.9333C95.5095 21.9333 95.2114 22.0817 94.876 22.3415C93.6093 23.3806 92.1189 24.0486 90.2188 24.0486C87.3126 24.0486 85.0398 22.2672 84.5554 19.0756H96.888C98.0431 19.0756 99.0119 18.185 99.0119 16.9231C99.0119 12.3954 95.9193 7.27394 89.6599 7.27394C84.0339 7.27394 80.0472 11.8758 80.0472 17.4798V17.554C80.0472 23.6033 84.4437 27.7228 90.1443 27.7228ZM84.5181 16.1067H94.6152C94.3171 13.212 92.6032 10.9481 89.6225 10.9481C86.8653 10.9481 84.9279 13.0636 84.5181 16.1067Z" fill="#3E45EB"/>
</g>
<defs>
<clipPath id="clip0_1_3280">
<rect width="100" height="27.7228" fill="white"/>
</clipPath>
</defs>
</svg>

<svg xmlns="http://www.w3.org/2000/svg" width="228.571" height="64" fill="none" viewBox="0 0 100 28"><g clip-path="url(#a)"><path fill="#3E45EB" fill-rule="evenodd" d="M76.1 25.236c0 1.262-1.005 2.227-2.272 2.227a2.214 2.214 0 0 1-2.236-2.227V2.226c0-1.224.969-2.226 2.236-2.226C75.095 0 76.1 1.002 76.1 2.227v23.01Zm-43.765-22.6c0 1.335-1.118 2.226-2.571 2.226s-2.571-.89-2.571-2.227v-.223c0-1.336 1.118-2.19 2.57-2.19 1.454 0 2.572.854 2.572 2.19v.223Zm-9.607 21.598c-2.46 2.153-5.254 3.489-9.464 3.489C5.664 27.723 0 21.822 0 14.363v-.075C0 6.903 5.552.854 13.45.854c4.024 0 6.67 1.187 8.942 2.931.485.372.895 1.002.895 1.819 0 1.262-1.006 2.227-2.273 2.227-.634 0-1.08-.223-1.379-.446-1.788-1.447-3.726-2.338-6.222-2.338-4.955 0-8.607 4.083-8.607 9.167v.074c0 5.085 3.614 9.204 8.607 9.204 2.757 0 4.62-.89 6.52-2.487a2.09 2.09 0 0 1 1.379-.52c1.155 0 2.16.966 2.16 2.116 0 .705-.335 1.262-.744 1.633Zm7.037 3.229c1.267 0 2.273-.965 2.273-2.227V9.723a2.254 2.254 0 0 0-2.273-2.263c-1.267 0-2.236 1.002-2.236 2.263v15.513a2.214 2.214 0 0 0 2.236 2.227Zm11.806-2.227c0 1.225-1.006 2.227-2.273 2.227a2.214 2.214 0 0 1-2.235-2.227V9.723c0-1.261.969-2.263 2.235-2.263a2.254 2.254 0 0 1 2.273 2.263v2.004c1.044-2.449 2.98-4.305 4.956-4.305 1.415 0 2.235.928 2.235 2.227 0 1.188-.782 1.967-1.788 2.153-3.204.556-5.403 3.006-5.403 7.645v5.79Zm18.439 2.487c3.278 0 5.402-1.114 7.153-2.784.41-.334.633-.816.633-1.41 0-1.076-.856-1.967-1.937-1.967-.521 0-.969.26-1.23.483-1.229 1.039-2.608 1.744-4.396 1.744-3.465 0-5.887-2.784-5.887-6.272v-.074c0-3.415 2.422-6.235 5.7-6.235 1.79 0 3.056.705 4.211 1.67.298.223.782.445 1.341.445 1.155 0 2.087-.89 2.087-2.04 0-.743-.41-1.3-.708-1.56-1.677-1.447-3.8-2.449-6.893-2.449-5.924 0-10.246 4.676-10.246 10.243v.074c0 5.567 4.322 10.132 10.172 10.132Zm30.134 0c3.055 0 5.291-1.002 7.08-2.598.335-.334.596-.817.596-1.373 0-1.04-.783-1.819-1.789-1.819-.522 0-.82.149-1.155.409-1.267 1.039-2.757 1.707-4.657 1.707-2.906 0-5.18-1.782-5.664-4.973h12.333c1.155 0 2.124-.891 2.124-2.153 0-4.528-3.093-9.65-9.352-9.65-5.626 0-9.613 4.603-9.613 10.207v.074c0 6.05 4.397 10.169 10.097 10.169Zm-5.626-11.616h10.097c-.298-2.895-2.012-5.159-4.992-5.159-2.758 0-4.695 2.116-5.105 5.159Z" clip-rule="evenodd"/></g><defs><clipPath id="a"><path fill="#fff" d="M0 0h100v27.723H0z"/></clipPath></defs></svg>
